dist/NXS_coin.svg

<svg id="icon" xmlns="http://www.w3.org/2000/svg" viewBox="0 0 500 500"><defs/><path fill="none" stroke="#000" d="M209 .14C125.63 13.01 51.52 69.31 18.15 147 9.9 166.22.03 195.09 0 216v68c.03 20.67 12.44 56.38 21.75 75C51.19 417.88 98.05 461.96 160 485.05c13.8 5.14 39.56 12.78 54 12.95h68c10.62-.02 25.64-3.66 36-6.58 31.06-8.76 57.16-21.81 83-41.16 38.2-28.62 66.64-67.76 83.42-112.26 6.41-16.98 13.55-41.9 13.58-60v-58c-.02-14.4-4.69-33.21-8.98-47-11.37-36.59-33.06-73.7-60.19-100.83C399.87 43.21 364.07 21.24 325 8.98 312.04 4.91 294.53.02 281 .14h-36-36zm40 34.76h8c36.94.26 79.47 14.2 110 34.84 23.02 15.57 43.28 35.29 58.97 58.26 44.1 64.56 48.87 147.05 14.77 217-11.41 23.42-28 44.04-46.74 61.96-17.21 16.46-42.86 32.36-65 41.24-21.35 8.57-43.11 13.32-66 14.89l-10 .91c-24.22.28-56.47-4.51-79-13.45-32.37-12.84-59.03-29.91-82.91-55.55-52.77-56.66-70.31-138.56-46.75-212 8.9-27.74 23.47-52.92 42.39-75C104.7 87.04 127.32 69.6 152 57.25c26.83-13.43 57.89-22.12 88-22.35h9zM118 285c-12.02 19.03-28.27 38.2-28 62 .3 26.02 23.82 37.73 47 38 16.9.19 37-4.66 53-10 34.39-11.47 71.75-31.93 98-57.04L305.83 300l12.75-15c16.88-21.66 39.59-63.17 14.41-86.91-3.32-3.13-6.8-5.41-10.99-7.21-8.03-3.45-13.75-3.3-22-4.05-9.06-.82-21.03.35-30 2.17-22.96 4.66-52.05 15.29-72 27.46l-13 9.2c-13.95 9.47-8.73 3.65-23 17.3l-5.68 5.32c-3.33 3.98-1.22 6.99-1.38 11.72-.14 4.44-1.73 7.69-5.04 10.66-8.31 7.45-14.3 2.13-18.9 3.23-4.02.95-9.37 8.12-13 11.11 2.3-3.48 7.92-11.07 8.4-15 .66-5.3-5.93-12.16 2.71-20.9 3.03-3.06 6.49-5.07 10.89-4.97 6.96.16 9.43 4.39 16.28-.81L182 223.16l10-6.59c38-26.37 67.48-43.56 112-57.29 22.19-6.84 43.65-11.55 67-11.28 7.79.09 22.5 3.2 30 5.67 6.4 2.11 12.27 6.07 19 4.33-2.1-7.35-9.95-18.71-14.63-25-13.36-17.96-25.12-29.71-43.37-42.71-21.05-15-41.01-23.92-66-30.16-8.74-2.19-16.93-4.12-26-4.13h-42c-14.74.02-37.23 6.51-51 12-43.7 17.43-81.19 50.45-101.89 93-9.01 18.52-19.08 46.31-19.11 67v22c0 25.91-1.16 25.21 5.37 51 2.97 11.71 7.08 22.13 12.27 33 1.22 2.57 4.01 9.37 7.33 9.37 3.69 0 6.96-12.11 8.51-15.37l13.1-22c4.89-7.89 8.25-14.73 15.42-21zm56 139c1.07 6.22 4.59 6.19 10 8l23 6.35c15.52 3.56 23.49 2.65 39 2.65h23c13.97-.02 37.98-6.49 51-11.86 52.45-21.63 93.89-62.84 112-117.14 4.13-12.39 8.98-30.03 9-43l-1-54c-1.76.31-2.79.22-4.19 1.6L425.14 239c-12.33 22.28-27.86 45.36-45.23 64-40.09 43.03-90.87 77.37-144.91 100.42-14.2 6.06-46.54 18.54-61 20.58z"/></svg>

<?xml version="1.0" encoding="UTF-8" standalone="no"?>
<!DOCTYPE svg PUBLIC "-//W3C//DTD SVG 20010904//EN"
              "http://www.w3.org/TR/2001/REC-SVG-20010904/DTD/svg10.dtd">

<svg xmlns="http://www.w3.org/2000/svg"
     width="5.55556in" height="5.55556in"
     viewBox="0 0 500 500">
  <path id="Selection #1"
        fill="none" stroke="black" stroke-width="1"
        d="M 209.00,0.14
           C 125.63,13.01 51.52,69.31 18.15,147.00
             9.90,166.22 0.03,195.09 0.00,216.00
             0.00,216.00 0.00,284.00 0.00,284.00
             0.03,304.67 12.44,340.38 21.75,359.00
             51.19,417.88 98.05,461.96 160.00,485.05
             173.80,490.19 199.56,497.83 214.00,498.00
             214.00,498.00 282.00,498.00 282.00,498.00
             292.62,497.98 307.64,494.34 318.00,491.42
             349.06,482.66 375.16,469.61 401.00,450.26
             439.20,421.64 467.64,382.50 484.42,338.00
             490.83,321.02 497.97,296.10 498.00,278.00
             498.00,278.00 498.00,220.00 498.00,220.00
             497.98,205.60 493.31,186.79 489.02,173.00
             477.65,136.41 455.96,99.30 428.83,72.17
             399.87,43.21 364.07,21.24 325.00,8.98
             312.04,4.91 294.53,0.02 281.00,0.14
             281.00,0.14 245.00,0.14 245.00,0.14
             245.00,0.14 209.00,0.14 209.00,0.14 Z
           M 249.00,34.90
           C 249.00,34.90 257.00,34.90 257.00,34.90
             293.94,35.16 336.47,49.10 367.00,69.74
             390.02,85.31 410.28,105.03 425.97,128.00
             470.07,192.56 474.84,275.05 440.74,345.00
             429.33,368.42 412.74,389.04 394.00,406.96
             376.79,423.42 351.14,439.32 329.00,448.20
             307.65,456.77 285.89,461.52 263.00,463.09
             263.00,463.09 253.00,464.00 253.00,464.00
             228.78,464.28 196.53,459.49 174.00,450.55
             141.63,437.71 114.97,420.64 91.09,395.00
             38.32,338.34 20.78,256.44 44.34,183.00
             53.24,155.26 67.81,130.08 86.73,108.00
             104.70,87.04 127.32,69.60 152.00,57.25
             178.83,43.82 209.89,35.13 240.00,34.90
             240.00,34.90 249.00,34.90 249.00,34.90 Z
           M 118.00,285.00
           C 105.98,304.03 89.73,323.20 90.00,347.00
             90.30,373.02 113.82,384.73 137.00,385.00
             153.90,385.19 174.00,380.34 190.00,375.00
             224.39,363.53 261.75,343.07 288.00,317.96
             288.00,317.96 305.83,300.00 305.83,300.00
             305.83,300.00 318.58,285.00 318.58,285.00
             335.46,263.34 358.17,221.83 332.99,198.09
             329.67,194.96 326.19,192.68 322.00,190.88
             313.97,187.43 308.25,187.58 300.00,186.83
             290.94,186.01 278.97,187.18 270.00,189.00
             247.04,193.66 217.95,204.29 198.00,216.46
             198.00,216.46 185.00,225.66 185.00,225.66
             171.05,235.13 176.27,229.31 162.00,242.96
             162.00,242.96 156.32,248.28 156.32,248.28
             152.99,252.26 155.10,255.27 154.94,260.00
             154.80,264.44 153.21,267.69 149.90,270.66
             141.59,278.11 135.60,272.79 131.00,273.89
             126.98,274.84 121.63,282.01 118.00,285.00
             120.30,281.52 125.92,273.93 126.40,270.00
             127.06,264.70 120.47,257.84 129.11,249.10
             132.14,246.04 135.60,244.03 140.00,244.13
             146.96,244.29 149.43,248.52 156.28,243.32
             156.28,243.32 182.00,223.16 182.00,223.16
             182.00,223.16 192.00,216.57 192.00,216.57
             230.00,190.20 259.48,173.01 304.00,159.28
             326.19,152.44 347.65,147.73 371.00,148.00
             378.79,148.09 393.50,151.20 401.00,153.67
             407.40,155.78 413.27,159.74 420.00,158.00
             417.90,150.65 410.05,139.29 405.37,133.00
             392.01,115.04 380.25,103.29 362.00,90.29
             340.95,75.29 320.99,66.37 296.00,60.13
             287.26,57.94 279.07,56.01 270.00,56.00
             270.00,56.00 228.00,56.00 228.00,56.00
             213.26,56.02 190.77,62.51 177.00,68.00
             133.30,85.43 95.81,118.45 75.11,161.00
             66.10,179.52 56.03,207.31 56.00,228.00
             56.00,228.00 56.00,250.00 56.00,250.00
             56.00,275.91 54.84,275.21 61.37,301.00
             64.34,312.71 68.45,323.13 73.64,334.00
             74.86,336.57 77.65,343.37 80.97,343.37
             84.66,343.37 87.93,331.26 89.48,328.00
             89.48,328.00 102.58,306.00 102.58,306.00
             107.47,298.11 110.83,291.27 118.00,285.00 Z
           M 174.00,424.00
           C 175.07,430.22 178.59,430.19 184.00,432.00
             184.00,432.00 207.00,438.35 207.00,438.35
             222.52,441.91 230.49,441.00 246.00,441.00
             246.00,441.00 269.00,441.00 269.00,441.00
             282.97,440.98 306.98,434.51 320.00,429.14
             372.45,407.51 413.89,366.30 432.00,312.00
             436.13,299.61 440.98,281.97 441.00,269.00
             441.00,269.00 440.00,215.00 440.00,215.00
             438.24,215.31 437.21,215.22 435.81,216.60
             435.81,216.60 425.14,239.00 425.14,239.00
             412.81,261.28 397.28,284.36 379.91,303.00
             339.82,346.03 289.04,380.37 235.00,403.42
             220.80,409.48 188.46,421.96 174.00,424.00 Z" />
</svg>
